packages/astro-components-stencil/src/icons/call-received.svg

<svg width="24" height="24" viewBox="0 0 24 24" fill="none" xmlns="http://www.w3.org/2000/svg">
<path d="M19.3 4.70998C18.91 4.31998 18.28 4.31998 17.89 4.70998L7 15.59V9.99998C7 9.44998 6.55 8.99998 6 8.99998C5.45 8.99998 5 9.44998 5 9.99998V18C5 18.55 5.45 19 6 19H14C14.55 19 15 18.55 15 18C15 17.45 14.55 17 14 17H8.41L19.3 6.10998C19.68 5.72998 19.68 5.08998 19.3 4.70998Z" fill="black"/>
</svg>

<svg xmlns="http://www.w3.org/2000/svg" viewBox="0 0 24 24"><g xmlns="http://www.w3.org/2000/svg" id="call-received" fill-rule="nonzero">
            <path d="M19.3 4.71a.996.996 0 00-1.41 0L7 15.59V10c0-.55-.45-1-1-1s-1 .45-1 1v8c0 .55.45 1 1 1h8c.55 0 1-.45 1-1s-.45-1-1-1H8.41L19.3 6.11c.38-.38.38-1.02 0-1.4z"/>
        </g></svg>
